X: 1
T: the Knockdhu Reel
C: Ian Hardie
R: reel
Z: 2014 John Chambers <jc:trillian.mit.edu>
F: http://ramshaw.info/tunes/Knockdhu_Reel_The.pdf (handwritten by Barbara McOwen)
M: C|
L: 1/8
K: Ador
B, |\
"Am"A,2(ED) CA,A,G, | "Am"A,CEG "D7"A2(EF) |\
"G"G2(BG) A(GE2) | "G"DEGD "Em"EDB,G, | "Am"A,2(ED) CA,A,G, |
"Am"A,CEG "D7"A2(EF) | "G"G2(BG) A(GE2) | "Em"DEGG, "Am"(B,A,)A, :|\
|: z |\
"Am"A2(aA) gAaA | "Am"e2(ed) "D7"cAAB |
"G"G2(BG) A(GE2) | "G"[D3G,3]E "Em"GABG |\
"Am"A2(aA) gAaA | "Am"e2(ed) "D7"cAAB |\
"G"G2(BG) A(GE2) | "Em"DEGG, "Am"(B,A,)A, :|
